packages/core/src/svgs/tokens/branded/AGLA.svg

<svg width="24" height="24" viewBox="0 0 24 24" fill="none" xmlns="http://www.w3.org/2000/svg">
<path d="M11.9999 21.9931C17.5209 21.9931 21.9965 17.5175 21.9965 11.9966C21.9965 6.4756 17.5209 2 11.9999 2C6.47902 2 2.00342 6.4756 2.00342 11.9966C2.00342 17.5175 6.47902 21.9931 11.9999 21.9931Z" fill="#ABABAB"/>
<path fill-rule="evenodd" clip-rule="evenodd" d="M7.68274 14.4958C6.12704 14.7206 4.37139 16.2764 3.56543 17.276C4.43075 18.671 5.62648 19.8312 7.04687 20.6541C8.46726 21.4769 10.0686 21.9371 11.709 21.994C13.3497 22.0508 14.979 21.7026 16.4528 20.9799C17.9267 20.2573 19.1999 19.1826 20.1596 17.8508L20.1784 17.6196C18.9288 15.6204 17.1607 14.7019 16.4298 14.4958C17.4731 11.7904 18.8727 5.74878 16.0611 5.74878C13.2495 5.74878 12.4748 9.91604 12.3686 12.3091H11.7439C11.6376 9.91604 10.7504 5.74878 7.99514 5.74878C5.12739 5.74878 6.63936 11.7904 7.68274 14.4958ZM12.3124 19.1816C12.3124 19.0987 12.2795 19.0193 12.2209 18.9607C12.1623 18.9021 12.0828 18.8693 12 18.8693C11.9171 18.8693 11.8376 18.9021 11.7792 18.9607C11.7206 19.0193 11.6876 19.0987 11.6876 19.1816C11.6876 19.4502 11.6251 19.694 11.5001 19.8689C11.4003 20.0313 11.2503 20.1188 11.0628 20.1188C10.5193 20.1188 10.4381 19.8689 10.4381 19.8064C10.4381 19.7236 10.4052 19.6441 10.3466 19.5855C10.288 19.5269 10.2085 19.494 10.1257 19.494C10.0427 19.494 9.9633 19.5269 9.90469 19.5855C9.84623 19.6441 9.81329 19.7236 9.81329 19.8064C9.81329 20.3687 10.3568 20.7436 11.0628 20.7436C11.5001 20.7436 11.8188 20.5187 12.025 20.2125C12.2124 20.4875 12.5123 20.7436 12.9371 20.7436C13.6431 20.7436 14.1868 20.3687 14.1868 19.8064C14.1868 19.7236 14.1538 19.6441 14.0952 19.5855C14.0366 19.5269 13.9572 19.494 13.8744 19.494C13.7916 19.494 13.7121 19.5269 13.6535 19.5855C13.5949 19.6441 13.5619 19.7236 13.5619 19.8064C13.5619 19.8689 13.4807 20.1188 12.9371 20.1188C12.781 20.1188 12.631 20.0188 12.4998 19.8064C12.3748 19.5877 12.3124 19.3316 12.3124 19.1816Z" fill="white"/>
</svg>

<svg xmlns="http://www.w3.org/2000/svg" width="24" height="24" fill="none" viewBox="0 0 24 24">
    <path fill="#ABABAB" d="M12 21.993c5.52 0 9.997-4.475 9.997-9.996S17.52 2 12 2s-9.997 4.476-9.997 9.997c0 5.52 4.476 9.996 9.997 9.996"/>
    <path fill="#fff" fill-rule="evenodd" d="M7.683 14.496c-1.556.225-3.312 1.78-4.118 2.78a9.99 9.99 0 0 0 16.595.575l.018-.231c-1.25-2-3.017-2.918-3.748-3.124 1.043-2.706 2.443-8.747-.369-8.747s-3.586 4.167-3.692 6.56h-.625c-.106-2.393-.994-6.56-3.749-6.56-2.868 0-1.356 6.041-.312 8.747m4.63 4.686a.312.312 0 1 0-.625 0c0 .268-.063.512-.188.687-.1.162-.25.25-.437.25-.544 0-.625-.25-.625-.313a.312.312 0 0 0-.625 0c0 .563.544.938 1.25.938.437 0 .756-.225.962-.532.187.276.487.532.912.532.706 0 1.25-.375 1.25-.938a.313.313 0 0 0-.625 0c0 .063-.081.313-.625.313-.156 0-.306-.1-.437-.313a1.4 1.4 0 0 1-.188-.624" clip-rule="evenodd"/>
</svg>
